src/distro-icons/ubuntu-studio.svg

<svg width="512" height="512" viewBox="0 0 512 512" fill="none" xmlns="http://www.w3.org/2000/svg">
<ellipse cx="245.5" cy="255.5" rx="235.5" ry="240.5" fill="white"/>
<path fill-rule="evenodd" clip-rule="evenodd" d="M246.336 0.268936C196.488 2.75147 152.156 17.3047 112.865 44.0864C-19.9773 134.635 -37.4995 323.632 76.4028 437.376C190.289 551.106 379.335 532.287 468.581 398.334C554.035 270.071 508.276 95.8034 371.123 27.1818C332.705 7.96041 287.533 -1.78151 246.336 0.268936ZM321.475 40.8444C357.078 51.1324 389.726 70.3591 414.413 95.5781C420.131 101.421 422.409 106.048 422.682 112.377C423.419 129.472 403.517 140.749 389.328 131.273C388.461 130.694 385.517 128.039 382.786 125.371C360.514 103.626 339.057 90.9497 309.578 82.1223C306.891 81.3178 304.088 80.3555 303.349 79.9844C285.377 70.9635 289.698 43.0075 309.528 40.0054C314.916 39.1889 316.012 39.2658 321.475 40.8444ZM264.892 106.416C360.117 112.662 425.113 202.584 401.411 295.286C377.875 387.331 275.349 434.971 189.782 393.62C169.767 383.948 148.309 367.054 143.735 357.367C137.598 344.372 146.668 330.486 161.641 329.949C168.555 329.7 172.393 331.295 178.311 336.88C226.854 382.674 300.74 377.898 341.884 326.301C391.059 264.634 361.23 171.774 285.304 150.158C246.713 139.172 208.197 149.294 177.08 178.6C165.526 189.482 150.414 187.481 143.89 174.205C139.776 165.831 141.745 153.388 147.661 150.383C148.28 150.069 150.162 148.488 151.845 146.867C180.955 118.845 223.312 103.688 264.892 106.416ZM261.976 176.925C304.761 180.81 336.521 216.691 335.185 259.632C333.825 303.31 298.725 337.567 255.331 337.567C203.732 337.567 165.917 289.507 177.532 238.69C186.338 200.165 222.954 173.382 261.976 176.925ZM67.4654 184.761C76.7315 187.036 83.1585 196.768 81.8556 206.552C81.6886 207.808 81.0325 210.871 80.3989 213.359C72.8016 243.134 72.8122 269.709 80.4321 300.058C82.2479 307.293 82.2413 311.063 80.4016 315.639C74.4239 330.503 53.8359 333.347 43.5957 320.725C37.7412 313.508 32.022 281.83 32.0154 256.584C32.0101 234.298 37.2866 202.098 42.0568 195.313C48.4812 186.174 57.6718 182.357 67.4654 184.761ZM130.361 202.384C144.026 204.54 151.477 216.569 147.923 230.738C143.231 249.451 143.186 264.096 147.765 283.07C150.159 292.993 148.852 299.021 142.967 305.186C131.459 317.247 113.156 311.661 108.794 294.756C102.964 272.161 102.332 249.653 106.913 227.793C109.439 215.735 111.185 210.958 114.146 207.997C118.394 203.749 124.849 201.515 130.361 202.384ZM250.975 216.163C220.345 220.422 204.385 255.047 221.329 280.481C243.666 314.005 296.305 297.883 296.305 257.518C296.305 233.707 273.623 213.014 250.975 216.163ZM401.91 381.043C418.376 384.684 425.17 404.219 414.307 416.696C405.038 427.342 384.802 443.127 368.276 452.602C350.354 462.878 320.193 474.604 310.474 475.074C292.251 475.957 281.182 455.397 292.329 441.371C295.469 437.419 298.629 435.588 306.3 433.278C336.556 424.167 356.721 412.16 380.766 388.936C388.478 381.487 394.22 379.344 401.91 381.043Z" fill="#049CFC"/>
</svg>

<svg width="512" height="512" fill="none" xmlns="http://www.w3.org/2000/svg">
<ellipse cx="245.5" cy="255.5" rx="235.5" ry="240.5" fill="#fff"/>
<path fill-rule="evenodd" clip-rule="evenodd" d="M246.336.269c-49.848 2.482-94.18 17.036-133.471 43.817C-19.977 134.635-37.5 323.632 76.403 437.376c113.886 113.73 302.932 94.911 392.178-39.042 85.454-128.263 39.695-302.53-97.458-371.152C332.705 7.96 287.533-1.782 246.336.269Zm75.139 40.575c35.603 10.288 68.251 29.515 92.938 54.734 5.718 5.843 7.996 10.47 8.269 16.799.737 17.095-19.165 28.372-33.354 18.896-.867-.579-3.811-3.234-6.542-5.902-22.272-21.745-43.729-34.421-73.208-43.249-2.687-.804-5.49-1.766-6.229-2.138-17.972-9.02-13.651-36.976 6.179-39.979 5.388-.816 6.484-.74 11.947.84Zm-56.583 65.572c95.225 6.246 160.221 96.168 136.519 188.87-23.536 92.045-126.062 139.685-211.629 98.334-20.015-9.672-41.473-26.566-46.047-36.253-6.137-12.995 2.933-26.881 17.906-27.418 6.914-.249 10.752 1.346 16.67 6.931 48.543 45.794 122.429 41.018 163.573-10.579 49.175-61.667 19.346-154.527-56.58-176.143-38.591-10.986-77.107-.864-108.224 28.442-11.554 10.882-26.666 8.881-33.19-4.395-4.114-8.374-2.145-20.817 3.771-23.822.619-.314 2.501-1.895 4.184-3.516 29.11-28.022 71.467-43.179 113.047-40.451Zm-2.916 70.509c42.785 3.885 74.545 39.766 73.209 82.707-1.36 43.678-36.46 77.935-79.854 77.935-51.599 0-89.414-48.06-77.799-98.877 8.806-38.525 45.422-65.308 84.444-61.765Zm-194.51 7.836c9.266 2.275 15.693 12.007 14.39 21.791-.167 1.256-.823 4.319-1.457 6.807-7.597 29.775-7.587 56.35.033 86.699 1.816 7.235 1.81 11.005-.03 15.581-5.978 14.864-26.566 17.708-36.806 5.086-5.855-7.217-11.574-38.895-11.58-64.141-.006-22.286 5.27-54.486 10.04-61.271 6.425-9.139 15.616-12.956 25.41-10.552Zm62.895 17.623c13.665 2.156 21.116 14.185 17.562 28.354-4.692 18.713-4.737 33.358-.158 52.332 2.394 9.923 1.087 15.951-4.798 22.116-11.508 12.061-29.811 6.475-34.173-10.43-5.83-22.595-6.462-45.103-1.881-66.963 2.526-12.058 4.272-16.835 7.233-19.796 4.248-4.248 10.703-6.482 16.215-5.613Zm120.614 13.779c-30.63 4.259-46.59 38.884-29.646 64.318 22.337 33.524 74.976 17.402 74.976-22.963 0-23.811-22.682-44.504-45.33-41.355Zm150.935 164.88c16.466 3.641 23.26 23.176 12.397 35.653-9.269 10.646-29.505 26.431-46.031 35.906-17.922 10.276-48.083 22.002-57.802 22.472-18.223.883-29.292-19.677-18.145-33.703 3.14-3.952 6.3-5.783 13.971-8.093 30.256-9.111 50.421-21.118 74.466-44.342 7.712-7.449 13.454-9.592 21.144-7.893Z" fill="#049CFC"/>
</svg>
